src/assets/icons/edit_pen_icon.svg

<svg width="20" height="21" viewBox="0 0 20 21" fill="none" xmlns="http://www.w3.org/2000/svg">
<path d="M16.5132 7.20032L8.68271 17.3636C8.32334 17.8251 7.79374 18.0847 7.22631 18.0944L4.10545 18.1328C3.93522 18.1328 3.79337 18.0174 3.75554 17.854L3.04625 14.7675C2.92331 14.2002 3.04625 13.6137 3.40562 13.1618L8.95697 5.95035C9.05154 5.83496 9.22177 5.81669 9.33525 5.90227L11.6712 7.76762C11.8225 7.89262 12.0305 7.95992 12.248 7.93108C12.7114 7.87339 13.0235 7.45032 12.9763 6.9984C12.9479 6.76764 12.8344 6.57533 12.6831 6.43111C12.6358 6.39265 10.4134 4.60422 10.4134 4.60422C10.2715 4.48883 10.2431 4.2773 10.3566 4.13403L11.2361 2.98886C12.0495 1.9408 13.468 1.84465 14.6123 2.7581L15.9269 3.80615C16.4659 4.22922 16.8253 4.78691 16.9482 5.37343C17.0901 6.01861 16.9388 6.65226 16.5132 7.20032Z" fill="black"/>
</svg>

<svg xmlns="http://www.w3.org/2000/svg" width="20" height="21" fill="none"><path fill="#000" d="m16.513 7.2-7.83 10.164c-.36.461-.89.72-1.457.73l-3.12.039a.36.36 0 0 1-.35-.279l-.71-3.086c-.123-.568 0-1.154.36-1.606L8.957 5.95a.28.28 0 0 1 .378-.048l2.336 1.866c.152.125.36.192.577.163a.845.845 0 0 0 .728-.933.94.94 0 0 0-.293-.567l-2.27-1.827a.34.34 0 0 1-.056-.47l.88-1.145c.813-1.048 2.231-1.144 3.375-.23l1.315 1.047c.539.423.898.98 1.021 1.567.142.646-.01 1.28-.435 1.827"/></svg>
